assets/Open file folder/Flat/open_file_folder_flat.svg

<svg width="32" height="32" viewBox="0 0 32 32" fill="none" xmlns="http://www.w3.org/2000/svg">
<path d="M16.8333 10H25C26.1487 10 27 10.8513 27 12V13L14 23.5L2.60938 28.2305C2.22099 27.6302 2 26.7728 2 26V8.08034C2 6.9316 2.93156 6 4.08027 6H10.7553C11.564 6 12.3396 6.3201 12.913 6.89041L15.3657 9.38757C15.7557 9.77506 16.2836 10 16.8333 10Z" fill="#FFB02E"/>
<path d="M27.911 13H10.886C10.1278 13.0002 9.38817 13.2346 8.76829 13.6711C8.1484 14.1077 7.67856 14.7251 7.42301 15.439C2.83201 28.604 3.21101 27.6579 3.09501 27.8059C3.04593 27.8817 2.97891 27.9442 2.89988 27.9878C2.82085 28.0314 2.73226 28.0548 2.64201 28.0559C2.57752 28.0551 2.51451 28.0364 2.46 28.002C2.80169 28.645 3.3217 29.1758 3.95762 29.5305C4.59354 29.8853 5.31836 30.049 6.04502 30.002H23.997C24.4333 29.9999 24.8575 29.8575 25.2066 29.5958C25.5558 29.3342 25.8115 28.9672 25.936 28.549L29.898 15.714C29.9968 15.4016 30.0207 15.0703 29.9676 14.7471C29.9145 14.4238 29.786 14.1176 29.5924 13.8533C29.3989 13.5889 29.1459 13.374 28.8537 13.2257C28.5616 13.0775 28.2386 13.0001 27.911 13Z" fill="#FCD53F"/>
</svg>

<svg xmlns="http://www.w3.org/2000/svg" width="32" height="32" fill="none"><path fill="#FFB02E" d="M16.833 10H25c1.149 0 2 .851 2 2v1L14 23.5 2.61 28.23C2.22 27.63 2 26.773 2 26V8.08A2.08 2.08 0 0 1 4.08 6h6.675c.809 0 1.585.32 2.158.89l2.453 2.498c.39.387.918.612 1.467.612Z"/><path fill="#FCD53F" d="M27.911 13H10.886a3.68 3.68 0 0 0-3.463 2.439C2.832 28.604 3.211 27.658 3.095 27.806a.548.548 0 0 1-.453.25.35.35 0 0 1-.182-.054 3.783 3.783 0 0 0 3.585 2h17.952a2.033 2.033 0 0 0 1.939-1.453l3.962-12.835A2.086 2.086 0 0 0 27.911 13Z"/></svg>
